Simply-Green-Circles/scalable/apps/preferences-plugin.svg

<svg xmlns="http://www.w3.org/2000/svg" width="48" height="48" viewBox="0 0 12.7 12.7"><path d="M6.351.06L6.35.061a6.29 6.29 0 0 0-6.289 6.29 6.29 6.29 0 0 0 6.29 6.288 6.29 6.29 0 0 0 6.288-6.288A6.29 6.29 0 0 0 6.351.06zm-.019.9368a5.407 5.407 0 0 1 5.4068 5.407 5.407 5.407 0 0 1-5.4069 5.4074A5.407 5.407 0 0 1 .925 6.4037 5.407 5.407 0 0 1 6.332.9968zm-.367.5426A1.003 1.003 0 0 0 4.9625 2.542c0 .3458.1787.6486.4454.8289v.1741H3.1802a.4448.4448 0 0 0-.446.4455v2.1652c.1838-.2306.4623-.383.7798-.383.5535 0 1.003.4491 1.003 1.0026 0 .5535-.4495 1.003-1.003 1.003-.3175 0-.596-.1528-.7798-.3834v2.1658c0 .2466.1991.446.446.446h2.1652c-.2306-.1841-.383-.4626-.383-.7799 0-.5537.4494-1.003 1.0026-1.003.5537 0 1.0025.4493 1.0025 1.003 0 .3173-.1523.5958-.3829.7798h2.1658a.445.445 0 0 0 .4454-.446V7.333H9.37c.1804.2665.4823.4454.8283.4454.5535 0 1.0026-.4493 1.0026-1.0025 0-.5537-.4491-1.0025-1.0026-1.0025-.346 0-.648.1785-.8283.4454h-.1742V3.9905a.4442.4442 0 0 0-.4454-.4455H6.522v-.1741c.2667-.1805.4454-.483.4454-.829 0-.5534-.449-1.0025-1.0025-1.0025z" fill="#2ca02c"/></svg>

<?xml version="1.0" encoding="UTF-8" standalone="no"?>
<svg
   xmlns:dc="http://purl.org/dc/elements/1.1/"
   xmlns:cc="http://creativecommons.org/ns#"
   xmlns:rdf="http://www.w3.org/1999/02/22-rdf-syntax-ns#"
   xmlns:svg="http://www.w3.org/2000/svg"
   xmlns="http://www.w3.org/2000/svg"
   xmlns:sodipodi="http://sodipodi.sourceforge.net/DTD/sodipodi-0.dtd"
   xmlns:inkscape="http://www.inkscape.org/namespaces/inkscape"
   width="48"
   height="48"
   viewBox="0 0 12.7 12.7"
   version="1.1"
   id="svg4"
   sodipodi:docname="preferences-plugin.svg"
   inkscape:version="0.92.4 (5da689c313, 2019-01-14)">
  <metadata
     id="metadata10">
    <rdf:RDF>
      <cc:Work
         rdf:about="">
        <dc:format>image/svg+xml</dc:format>
        <dc:type
           rdf:resource="http://purl.org/dc/dcmitype/StillImage" />
        <dc:title></dc:title>
      </cc:Work>
    </rdf:RDF>
  </metadata>
  <defs
     id="defs8" />
  <sodipodi:namedview
     pagecolor="#ffffff"
     bordercolor="#666666"
     borderopacity="1"
     objecttolerance="10"
     gridtolerance="10"
     guidetolerance="10"
     inkscape:pageopacity="0"
     inkscape:pageshadow="2"
     inkscape:window-width="1087"
     inkscape:window-height="480"
     id="namedview6"
     showgrid="false"
     inkscape:zoom="4.9166667"
     inkscape:cx="2.1355932"
     inkscape:cy="24"
     inkscape:window-x="0"
     inkscape:window-y="25"
     inkscape:window-maximized="0"
     inkscape:current-layer="svg4" />
  <path
     d="M 6.351,0.06 6.35,0.061 A 6.29,6.29 0 0 0 0.061,6.351 6.29,6.29 0 0 0 6.351,12.639 6.29,6.29 0 0 0 12.639,6.351 6.29,6.29 0 0 0 6.351,0.06 Z M 6.332,0.9968 A 5.407,5.407 0 0 1 11.7388,6.4038 5.407,5.407 0 0 1 6.3319,11.8112 5.407,5.407 0 0 1 0.925,6.4037 5.407,5.407 0 0 1 6.332,0.9968 Z M 5.965,1.5394 A 1.003,1.003 0 0 0 4.9625,2.542 c 0,0.3458 0.1787,0.6486 0.4454,0.8289 V 3.545 H 3.1802 A 0.4448,0.4448 0 0 0 2.7342,3.9905 V 6.1557 C 2.918,5.9251 3.1965,5.7727 3.514,5.7727 c 0.5535,0 1.003,0.4491 1.003,1.0026 0,0.5535 -0.4495,1.003 -1.003,1.003 -0.3175,0 -0.596,-0.1528 -0.7798,-0.3834 v 2.1658 c 0,0.2466 0.1991,0.446 0.446,0.446 H 5.3454 C 5.1148,9.8226 4.9624,9.5441 4.9624,9.2268 c 0,-0.5537 0.4494,-1.003 1.0026,-1.003 0.5537,0 1.0025,0.4493 1.0025,1.003 0,0.3173 -0.1523,0.5958 -0.3829,0.7798 H 8.7504 A 0.445,0.445 0 0 0 9.1958,9.5606 V 7.333 H 9.37 c 0.1804,0.2665 0.4823,0.4454 0.8283,0.4454 0.5535,0 1.0026,-0.4493 1.0026,-1.0025 0,-0.5537 -0.4491,-1.0025 -1.0026,-1.0025 -0.346,0 -0.648,0.1785 -0.8283,0.4454 H 9.1958 V 3.9905 A 0.4442,0.4442 0 0 0 8.7504,3.545 H 6.522 V 3.3709 c 0.2667,-0.1805 0.4454,-0.483 0.4454,-0.829 0,-0.5534 -0.449,-1.0025 -1.0025,-1.0025 z"
     id="path2"
     inkscape:connector-curvature="0"
     style="fill:#2ca02c" />
</svg>
